Source/images/icons/tags.svg

<svg class="icon" style="" viewBox="0 0 1024 1024" version="1.1" xmlns="http://www.w3.org/2000/svg" xmlns:xlink="http://www.w3.org/1999/xlink" width="200" height="200"><defs><style type="text/css"></style></defs><path d="M223.94391 322.758961c13.423731-13.414521 20.394493-30.05041 20.394493-48.830125 0-18.780739-6.971785-34.886555-20.394493-48.301076-13.414521-13.414521-29.512151-20.385283-48.291866-20.385283-18.780739 0-35.415604 6.971785-48.830125 20.385283-13.414521 13.414521-19.857257 29.521361-19.857257 48.301076 0 18.779715 6.441713 35.415604 19.857257 48.830125 13.413498 13.413498 30.049387 19.856233 48.830125 19.856233C194.431759 342.616218 210.529389 336.173482 223.94391 322.758961L223.94391 322.758961zM816.895617 583.016427c0 18.780739-6.435573 34.876322-19.848047 48.28982L533.567713 895.313106c-13.951757 13.413498-30.049387 19.857257-48.829102 19.857257-18.780739 0-34.877345-6.443759-48.291866-19.857257L52.769342 511.106654c-13.413498-13.413498-25.222451-31.125905-34.877345-54.19532-9.124821-23.078625-13.95278-44.002167-13.95278-62.782905l0-223.234247c0-18.780739 6.971785-34.877345 20.395516-48.290843C37.749254 109.187795 53.846884 102.217033 72.627622 102.217033L295.851637 102.217033c18.780739 0 39.714514 4.826935 62.782905 14.481829 23.078625 9.124821 41.320081 20.933775 54.733579 34.348296l383.678426 383.128911C810.460044 548.128849 816.895617 564.226478 816.895617 583.016427L816.895617 583.016427zM1022.954693 583.016427c0 18.780739-6.442736 34.876322-19.857257 48.28982L739.628836 895.313106c-13.95278 13.413498-30.049387 19.857257-48.829102 19.857257-25.762757 0-38.636972-9.654894-60.099796-31.655977l252.197906-252.209162c13.414521-13.413498 19.857257-29.510104 19.857257-48.28982 0-18.788925-6.442736-34.887578-19.857257-48.840358l-383.668193-383.128911c-13.414521-13.414521-31.665187-25.222451-54.734602-34.348296-23.078625-9.654894-44.002167-14.481829-62.782905-14.481829l120.199593 0c18.780739 0 39.70428 4.826935 62.782905 14.481829 23.069415 9.124821 41.321104 20.933775 54.733579 34.348296l383.668193 383.128911C1016.511957 548.128849 1022.954693 564.226478 1022.954693 583.016427z"></path></svg>

<svg class="icon" viewBox="0 0 1024 1024" xmlns="http://www.w3.org/2000/svg" width="200" height="200"><defs><style/></defs><path d="M223.944 322.759c13.424-13.415 20.394-30.05 20.394-48.83 0-18.78-6.971-34.887-20.394-48.301-13.415-13.415-29.512-20.386-48.292-20.386s-35.416 6.972-48.83 20.386c-13.415 13.414-19.857 29.521-19.857 48.3 0 18.78 6.441 35.416 19.857 48.831 13.413 13.413 30.05 19.856 48.83 19.856 18.78.001 34.877-6.442 48.292-19.856zm592.952 260.257c0 18.781-6.436 34.877-19.848 48.29l-263.48 264.007c-13.952 13.414-30.05 19.857-48.83 19.857-18.78 0-34.877-6.443-48.291-19.857L52.769 511.107c-13.413-13.414-25.222-31.126-34.877-54.196-9.125-23.078-13.953-44.002-13.953-62.783V170.894c0-18.78 6.972-34.877 20.396-48.29 13.414-13.416 29.512-20.387 48.293-20.387h223.224c18.78 0 39.714 4.827 62.783 14.482 23.078 9.125 41.32 20.934 54.733 34.348l383.679 383.13c13.413 13.952 19.849 30.05 19.849 48.84zm206.059 0c0 18.781-6.443 34.877-19.858 48.29L739.63 895.313c-13.953 13.414-30.05 19.857-48.83 19.857-25.762 0-38.636-9.655-60.1-31.656l252.199-252.209c13.414-13.413 19.857-29.51 19.857-48.29 0-18.789-6.443-34.887-19.857-48.84L499.23 151.046c-13.415-13.414-31.666-25.222-54.735-34.348-23.079-9.655-44.002-14.482-62.783-14.482h120.2c18.78 0 39.704 4.827 62.783 14.482 23.07 9.125 41.32 20.934 54.733 34.348l383.668 383.129c13.416 13.954 19.859 30.051 19.859 48.841z"/></svg>
